static/logos/heroku-glyph-color.svg

<svg width="50" height="56" viewBox="0 0 50 56" fill="none" xmlns="http://www.w3.org/2000/svg">
<g clip-path="url(#clip0_1_2461)">
<path d="M44.8611 0H5C2.22222 0 0 2.22222 0 5V50.5556C0 53.3333 2.22222 55.5556 5 55.5556H44.8611C47.6389 55.5556 49.8611 53.3333 49.8611 50.5556V5C49.8611 2.22222 47.6389 0 44.8611 0ZM47.0833 50.5556C47.0833 51.8056 46.1111 52.7778 44.8611 52.7778H5C3.75 52.7778 2.77778 51.8056 2.77778 50.5556V5C2.77778 3.75 3.75 2.77778 5 2.77778H44.8611C46.1111 2.77778 47.0833 3.75 47.0833 5V50.5556ZM12.5 47.2222L18.75 41.6667L12.5 36.1111V47.2222ZM35 24.7222C33.8889 23.6111 31.8056 22.2222 28.3333 22.2222C24.5833 22.2222 20.6944 23.1944 17.9167 24.1667V8.33333H12.3611V32.3611L16.25 30.5556C16.25 30.5556 22.6389 27.6389 28.1944 27.6389C30.9722 27.6389 31.6667 29.1667 31.6667 30.5556V47.2222H37.2222V30.5556C37.3611 30.1389 37.3611 27.0833 35 24.7222ZM27.6389 17.3611H33.1944C35.6944 14.4444 36.9444 11.5278 37.3611 8.33333H31.8056C31.25 11.5278 29.8611 14.4444 27.6389 17.3611Z" fill="#430098"/>
</g>
<defs>
<clipPath id="clip0_1_2461">
<rect width="50" height="55.5556" fill="white"/>
</clipPath>
</defs>
</svg>

<svg xmlns="http://www.w3.org/2000/svg" width="57.143" height="64" fill="none" viewBox="0 0 50 56"><g clip-path="url(#a)"><path fill="#430098" d="M44.861 0H5a4.98 4.98 0 0 0-5 5v45.556c0 2.777 2.222 5 5 5h39.861c2.778 0 5-2.223 5-5V5c0-2.778-2.222-5-5-5Zm2.222 50.556c0 1.25-.972 2.222-2.222 2.222H5a2.194 2.194 0 0 1-2.222-2.222V5c0-1.25.972-2.222 2.222-2.222h39.861c1.25 0 2.222.972 2.222 2.222v45.556ZM12.5 47.222l6.25-5.555-6.25-5.556v11.111Zm22.5-22.5c-1.111-1.11-3.194-2.5-6.667-2.5-3.75 0-7.639.972-10.416 1.945V8.333H12.36v24.028l3.889-1.805s6.389-2.917 11.944-2.917c2.778 0 3.473 1.528 3.473 2.917v16.666h5.555V30.556c.14-.417.14-3.473-2.222-5.834Zm-7.361-7.36h5.555c2.5-2.918 3.75-5.834 4.167-9.029h-5.555c-.556 3.195-1.945 6.111-4.167 9.028Z"/></g><defs><clipPath id="a"><path fill="#fff" d="M0 0h50v55.556H0z"/></clipPath></defs></svg>
